!!!!SEGMENT: pl-sa--l-1636--049_anonim--keyboard-piece.krn
!!!cenid: 17xx:756
!!!COM: Anonim
!!!COM-rismid: pe30004985
!!!CDT:
!!!CNT:
!!!OTL: [Keyboard piece]
!!!PDT:
!!!AGN: Secular
!!!SMS-siglum: PL-SA
!!!SMS-shelfmark: L 1636
!!!SMS-shelfwork: 049 W
!!!SMS-variant:
!!!SMS-altvar:
!!!NIFC-rismid: 1001076570
!!!URL-scan: http://repozytorium.nifc.pl/skany/pl-sa-nut--l1636
!!!ONB-nifc: 14r, skan 0017, s. 5-6
!!!key:
**kern	**kern
*part2	*part1
*staff2	*staff1
*Iempty	*Iempty
*I"	*I"
*I'keyb	*I'keyb
*clefF4	*clefC1
*k[]	*k[]
*a:	*a:
*M2/2	*M2/2
*met(c|)	*met(c|)
=1	=1
*^	*
*2\right	*2\right	*2\right
!LO:TX:a:t=P:problem:wszystkie caudy z prawej	!	!LO:TX:a:t=P:problem:wszystkie caudy z prawej
4A/	1AA	8r
.	.	8e/
4G/	.	8B/L
.	.	16c/L
.	.	16d/JJ
2G#X/	.	4.c/
.	.	8B/
=2	=2	=2
2A/	2F\	8A/L
.	.	16B/L
.	.	16c/JJ
.	.	8d/L
.	.	16e/L
.	.	16f/JJ
4B/	2E\	8g/L
.	.	8e/
4c/	.	8f/
.	.	8g/J
*v	*v	*
=3	=3
*	*^
8D\L	2f/	8d\L
8E\J	.	16c\L
.	.	16B\JJ
4F\	.	8A\L
.	.	16d\L
.	.	16c\JJ
8G\L	8d/L	8B\
8E\	8e/J	4c\
8F\	4d/	.
8G\J	.	8B\
=4	=4	=4
*^	*	*
4c/	8C\L	8e/L	2ryy
.	16D\L	16f#X/L	.
.	16E\JJ	16g/JJ	.
8c/L	8F\L	8a\L	.
16d/L	8D\J	16b\L	.
16c/JJ	.	16a\JJ	.
!	!	!LO:TX:b:t=P:problem:# below	!
8B/L	2E\	8g#X/L	4.e\
8c/J	.	8a/	.
4B/	.	8a/	.
.	.	8g#X/J	8d\
*v	*v	*	*
*	*v	*v
=5	=5
1AA 1E 1A	1c 1e 1a
=6||	=6||
*	*^
!	!LO:TX:a:t=P:problem:w 2 taktach wymazane krzyżyki	!
2AA/ 2A	4.a/	2c\ 2e\
.	8g/	.
2DD/ 2D	2f/ 2a	4.d\
.	.	8c\
=7	=7	=7
*	*	*^
4G\	2g/	4d/	4B\
4E\	.	4e/	4c\
4.A\	4g/	4e/	4c\
.	4f/	4ryy	4d\
8F\	.	.	.
*	*	*v	*v
=8	=8	=8
8G\L	2e/	4d\
8E\	.	.
8A\	.	4c\
8G\J	.	.
8F\L	2d/	4c\
8D\	.	.
8G\	.	4B\
8F\J	.	.
=9	=9	=9
8E\L	2c/	4B\
8C\	.	.
8F\	.	4A\
8E\J	.	.
!LO:TX:a:t=P:problem:mixed beam	!	!
8D\L	2B/	4A\
8BB\	.	.
8E\	.	4G#X\
8EE/J	.	.
*	*v	*v
=10	=10
1AA 1C 1E 1A	1A 1c 1e
!	!LO:TX:a:t=P:problem:utwór zakończony kreską z obustronną repetycją
==	==
*-	*-
!!!system-decoration: [(s1,s2)]
!!!RDF**kern: > = above
!!!RDF**kern: < = below
!!!EED: Mateusz Mrugas
!!!EST: 2020-12-08
!!!AIN: 2 empty
!!!ENC: Andrzej Borzym
!!!END: 2020-06-11
